Costumes/c-block.svg

<?xml version="1.0" encoding="UTF-8" standalone="no"?>
<svg
   version="1.1"
   width="66.890007"
   height="79.919724"
   id="svg5"
   sodipodi:docname="c-block.svg"
   xmlns:inkscape="http://www.inkscape.org/namespaces/inkscape"
   xmlns:sodipodi="http://sodipodi.sourceforge.net/DTD/sodipodi-0.dtd"
   xmlns="http://www.w3.org/2000/svg"
   xmlns:svg="http://www.w3.org/2000/svg">
  <defs
     id="defs9" />
  <sodipodi:namedview
     id="namedview7"
     pagecolor="#ffffff"
     bordercolor="#000000"
     borderopacity="0.25"
     inkscape:showpageshadow="2"
     inkscape:pageopacity="0.0"
     inkscape:pagecheckerboard="0"
     inkscape:deskcolor="#d1d1d1" />
  <!-- Exported by Scratch - http://scratch.mit.edu/ -->
  <g
     id="ID0.7389192478731275"
     transform="translate(-0.11122184,-0.08471826)">
    <path
       id="ID0.0158006614074111"
       d="m 309,358 c 2,0 4.062,-0.425 6,0 5.441,1.875 13.066,1.783 16.5,6.75 2.35,3.166 -1.132,8.273 -3.5,11.5 -1.614,2.199 -6.272,2.98 -7.5,3.25 -0.63,0.276 3.659,-2.551 3.25,-2 -0.682,0.898 -3.256,4.821 -5.75,5.5 -1.605,0.439 -2.693,-3.725 -4,-3 -16.112,-0.35 -23.629,29.44 -7,33 7.036,-3.964 17.633,-4.367 23,-10 5.59,0.744 6.805,6.636 8,11 0.464,1.73 -3.636,1.967 -4.5,3.75 -0.935,2.534 1.65,6.401 -0.5,8.25 -4.643,3.99 -12.315,3.877 -17,7 -5.636,0.285 -11.333,0 -17,0 -14.752,-2.581 -23.022,-11.645 -24,-28 0,-3 0,-6 0,-9 7.123,-16.877 15.08,-32.92 34,-38 z m -12,8 c -6.941,4.501 -9.253,13.862 -14,18 -2.541,28.674 10.728,45.961 36,38 5.755,-1.812 13.664,-6.902 15,-11 -2.935,-7.34 -7.402,-0.761 -12,1 -10.319,-0.653 -11.57,5.989 -20,3 -12.162,-4.313 -12.839,-32.023 -5,-40 8.793,-8.947 17.739,-1.79 30,-3 -0.745,-3.078 2.745,-1.922 2,-5 -5.027,-8.42 -23.789,-6.325 -32,-1 z"
       transform="matrix(1.0611317,0,0,1.0611317,-291.7,-379.6)" />
    <path
       id="ID0.7828714372590184"
       fill="#ff9400"
       d="m 329,367 c 0.745,3.078 -2.745,1.922 -2,5 -12.261,1.21 -21.207,-5.947 -30,3 -7.839,7.977 -7.162,35.687 5,40 8.43,2.989 9.681,-3.653 20,-3 4.598,-1.761 9.065,-8.34 12,-1 -1.336,4.098 -9.245,9.188 -15,11 -25.272,7.961 -38.541,-9.326 -36,-38 4.747,-4.138 7.059,-13.499 14,-18 8.211,-5.325 26.973,-7.42 32,1 z"
       transform="matrix(1.0611317,0,0,1.0611317,-291.7,-379.6)" />
  </g>
</svg>

<svg version="1.1" width="67" height="80" xmlns="http://www.w3.org/2000/svg" xmlns:xlink="http://www.w3.org/1999/xlink">
  <!-- Exported by Scratch - http://scratch.mit.edu/ -->
  <g id="ID0.7389192478731275">
    <path id="ID0.0158006614074111" d="M 309 358 C 311 358 313.062 357.575 315 358 C 320.441 359.875 328.066 359.783 331.500 364.750 C 333.850 367.916 330.368 373.023 328 376.250 C 326.386 378.449 321.728 379.230 320.500 379.500 C 319.870 379.776 324.159 376.949 323.750 377.500 C 323.068 378.398 320.494 382.321 318 383 C 316.395 383.439 315.307 379.275 314 380 C 297.888 379.650 290.371 409.440 307 413 C 314.036 409.036 324.633 408.633 330 403 C 335.590 403.744 336.805 409.636 338 414 C 338.464 415.730 334.364 415.967 333.500 417.750 C 332.565 420.284 335.150 424.151 333 426 C 328.357 429.990 320.685 429.877 316 433 C 310.364 433.285 304.667 433 299 433 C 284.248 430.419 275.978 421.355 275 405 C 275 402 275 399 275 396 C 282.123 379.123 290.080 363.080 309 358 Z M 297 366 C 290.059 370.501 287.747 379.862 283 384 C 280.459 412.674 293.728 429.961 319 422 C 324.755 420.188 332.664 415.098 334 411 C 331.065 403.660 326.598 410.239 322 412 C 311.681 411.347 310.430 417.989 302 415 C 289.838 410.687 289.161 382.977 297 375 C 305.793 366.053 314.739 373.210 327 372 C 326.255 368.922 329.745 370.078 329 367 C 323.973 358.580 305.211 360.675 297 366 Z " transform="matrix(1.0611317157745361, 0, 0, 1.0611317157745361, -291.7, -379.6)"/>
    <path id="ID0.7828714372590184" fill="#FF9400" d="M 329 367 C 329.745 370.078 326.255 368.922 327 372 C 314.739 373.210 305.793 366.053 297 375 C 289.161 382.977 289.838 410.687 302 415 C 310.430 417.989 311.681 411.347 322 412 C 326.598 410.239 331.065 403.660 334 411 C 332.664 415.098 324.755 420.188 319 422 C 293.728 429.961 280.459 412.674 283 384 C 287.747 379.862 290.059 370.501 297 366 C 305.211 360.675 323.973 358.580 329 367 Z " transform="matrix(1.0611317157745361, 0, 0, 1.0611317157745361, -291.7, -379.6)"/>
  </g>
</svg>
